!!!SOCIAL_FUNCTION:	songs used in the treatment of the sick
!!!PDT:	1929
!!!OTL: No_51_Singing_to_the_Leaves_and_Flowers.krn
!!!REG: Southwest
!!!LANG: Non-Tone
!!!LING_GROUP: Uto-Aztecan
**kern
*staff1
*clefF4
*k[f#c#]
*M3/4
4B\
=1
4.A\
8F#\
4B\
=2
4.A\
8F#\
(8.A\L
16F#\Jk)
=3
4.F#\
8F#\
4E\
=4
4.E\
8D\
8.D/L
16BB/Jk
=5||
*M2/4
4D\
4BB/
=6
4AA/
8.F#\L
16F#\Jk
=7
=
*M3/4
4E\
4D\
8.F#\L
16F#\Jk
=8
4E\
4E\
8.D/L
16BB/Jk
=9||
*M2/4
4D\
4BB/
=10
8.E\L
16E\Jk
4E\
=11||
*M3/4
8.E\L
16D\Jk
4BB/
8.D\L
16D\Jk
=12||
*M2/4
[2D\
=13
*M1/4
4D\]
==:|!
*-
